X: 33
T: Good-bye Liza Jane (basic tune)
M: C|
L: 1/8
B: Kuntz - Ragged but Right
Z: AK/Fiddler's Companion
F: http://www.ibiblio.org/fiddlers/GOO_GOW.htm
K: G
|: "G"G2G2 "D7"A2A2 | "G"B2B2 "C"c4 | "G"B2G2- G4  | "D7"F2D2- D4 \
|  "G"G2G2 "D7"A2A2 | "G"B2B2 "C"c4 | "G"B2G2 "D7"A2F2 | "G"G6 z2 :|
|: "G"d4 "C"e3d | "G"B2 d6 | "G"B2G2 A2G2 | "G"B6 z2 \
|  "G"d4 "C"e3d | "G"B2 d6 | "G"B2G2 "D7"A2F2 | "G"G6 z2 :|
%%sep 2 1 500
